X:1
T:Title
%%score { 1 | 2 }
L:1/8
M:3/4
K:Bb
V:1 treble nm="Grand Piano"
V:2 bass 
V:1
 z2 z2[Q:1/4=94] [B,D]>[CE] | [DF]3 [Fd] [=E_d]>[F=d] | [DB]2 [DF]2 G>F | E3 C F>E |[M:2/4] D4 | %5
[M:1/4] D>[CE] |[M:3/4] [DF]3 [Fd] [=E_d]>[F=d] | [DB]2 [DF]2 [DF]>[FB] | A3 A Bc |[M:2/4] [DB]4 | %10
[M:1/4] A>B |[M:3/4] c3 F G>F | [DF] [DB]3 [FB]>c | d3 [FB] [Fe][Fd] |[M:2/4] [Fc]4 | %15
[M:1/4] [Fd]>[Ec] |[M:3/4] [DB]3 [Ec] [DB]F | A G3 G>G | F3 G FE |[M:2/4] D4 |[M:1/4] [Fd]>[Ec] | %21
[M:3/4] [DB]3 [FB] cd | [Gf] [Ge]3 [Gd]>[Gc] | B3 d d>c |[M:2/4] [DB]4 |] %25
V:2
 z2 z2 [B,,F,]>[B,,F,] | [B,,B,]3 [B,,B,] [B,,B,]>[B,,B,] | [B,,F,]2 [B,,B,]2 [F,E]>[F,D] | %3
 [F,C]3 [F,A,] [F,D]>[F,C] |[M:2/4] [B,,F,B,]4 |[M:1/4] [B,,F,B,]>[B,,F,] | %6
[M:3/4] [B,,B,]3 [B,,B,] [B,,B,]>[B,,B,] | [B,,F,]2 [B,,B,]2 [B,,B,]>[D,B,] | %8
 [F,CE]3 [F,CE] [F,B,D][F,A,E] |[M:2/4] [B,,B,]4 |[M:1/4] [F,C]>[F,D] | %11
[M:3/4] [F,E]3 [F,A,E] [F,A,E]>[F,A,E] | [B,,B,] [B,,F,]3 [D,B,]>[K:treble][F,A,F] | %13
 [B,F]3[K:bass] [D,B,] [C,A,][B,,B,] |[M:2/4] [F,A,]4 |[M:1/4] [B,,B,]>[B,,F,] | %16
[M:3/4] [B,,F,]3 [B,,F,] [B,,F,][D,B,] | [E,B,F] [E,B,E]3 [E,B,E]>[E,B,E] | %18
 [F,B,D]3 [F,A,E] [F,A,D][F,C] |[M:2/4] [B,,F,B,]4 |[M:1/4] [B,,B,]>[B,,F,] | %21
[M:3/4] [B,,F,]3 [D,B,][K:treble] [F,A,F][B,_A] | [E,B,] [E,B,]3 [E,=B,]>[E,C] | %23
 [F,DF]3 [F,B,F] [F,B,F]>[F,A,E] |[M:2/4] [B,,B,]4 |] %25

